X:1
T:Que sans l'aide
T:Que sans l'aide
T:Jean de Castro
T:Source : Chansons, madrigaux et motetz à 3 parties---Anvers---P.Phalèse---1582. Editor : André Vierendeels (06/10/15).
T:Notes : Original clefs : C1, C3, C4 Editorial accidentals above the staff
T:b
T:b
C:Jean de Castro
%%score [ 1 2 3 ]
L:1/8
Q:1/4=100
M:2/2
K:C
V:1 treble nm="Superius" snm="S"
V:2 treble nm="Altus" snm="A"
V:3 treble-8 nm="Tenor" snm="T"
V:1
 z8 | A4 A4 | G4 F4 | B6 B2 | A4 F2 F2 | G4 A4 | D2 G2 E4 | ^F4 z4 | A4 B4 | c6 A2 | G2 F2 G4 | %11
w: |Que sans|l'ai- de|des cha-|leurs dont mon|a- m'est|em- bra- sé-|e,|dont mon|a- m'est|em- bra- sé-|
 A8 | z8 | A8 | G4 A4- | A4 G4 | E4 F4 | E6 D2 | C4 c4- | c4 B4 | c8- | c4 B4 | G4 A4- | A4 G4 | %24
w: e,||long|tems a|_ que|par mes|pleurs, _|_ long|_ tems|a|_ que|par mes|_ pleurs,|
 z2 A2 c4 | z2 G2 _B4 | z2 F2 FGAB | c6 G2 | A4 z2 A2- | A2 A2 d4 | c4 z2 A2 | D2 A4 G2 | %32
w: en eau,|en eau,|en eau _ _ _|_ ce|fut es-|* pui- sé-|e, vo-|yez donc, mon|
 A2 B2 c4 | A4 A2 A2 | G4 F2 F2 |"^b" B4 A4 | z2 A2 F2 E2- | E2 E2 c2 A2 | G2 G2 A4- | A2 c4 G2 | %40
w: cher e- moy,|voy- ez com-|bien de mer-|veil- les,|voy- ez donc|_ mon cher e-|moy, voy- ez|_ com- bien|
 c2 d2 _B4 | A4 A2 A2 | A6 D2 | F2 F2 E4- | E4 c2 B2 | A4 G4 | F4 E4 | DEFG A4 | z4 d2 d2 | c6 A2 | %50
w: de mer- veil-|les vous par-|fai- tes|de- dans moy,|_ vous par-|fai- tes|de- dans|moy, _ _ _ _|vous par-|fai- tes|
 B4 ^c4 | d8 | z4 A2 A2 | G4 F4 | E4 E4 | F4 A2 B2 | c4 B4 | z4 A2 A2 | B2 c2 d2 d2 | B4 c4 | %60
w: de- dans|moy,|vous par-|fai- tes|de- dans|moy, par voz|beau- tez,|par voz|beau- tez non pa-|reil- les,|
 A2 G2 A4 | A4 z4 | F2 G2 A4 | G4 D2 E2 | F6 F2 | E2 D2 E4 | ^F8 |] %67
w: non pa- reil-|les,|par voz beau-|tez non pa-|reil- les,|non pa- reil-|les.|
V:2
 z4 D4 | E2 F4 E2 | D6 C2 | D4 E4 | F4 C2 D2 | E4 A,4 | z4 ^C2 C2 | D4 E4 | ^F4 G4 | %9
w: Que|sans l'ai- de|des _|_ cha-|leurs dont mon|a- m'est|dont- mon|a- m'est|em- bra-|
"^-natural" E4 F2 F2 | E2 D2 E4 | F8 | z4 A4- | A4 F4 | E4 D4 | C4 B,4 | C2 A,2 D4- | %17
w: sé- e, est-|em- bra- sé-|e,|long|_ tems|a que|par mes|_ _ _|
 D2 CB, C2 D2 | E6 DC | D8 | z4 E4- | E4 E4 | E4 E4 | D4 D4 | E8 | z2 E2 G4 | z2 D2 DEFG | A4 G4 | %28
w: ||pleurs,|long|_ tems|a que|par mes|pleurs,|en eau,|en eau _ _ _|_ ce|
 F4 z2 F2- | F2 E2 D4 | E2 E2 A,2 D2- | D2 ^C2 D2 E2 |"^-natural" F4 z2 C2 | C2 C2 F4 | E2 C4 F2- | %35
w: fut es-|* pui- sé-|e, voy- ez donc,|_ mon cher e-|moy, voy-|ez com- bien|de mer- veil-|
 FE/D/ E2 F4 | z2 C2 D2 C2- | C2 B,2 A,2 F2 | E4 C4 | F2 F2 E4 | A2 F2 G4 | C8 | z4 D2 D2 | %43
w: * * * * les,|voy- ez donc|_ mon cher e-|moy, voy-|ez com- bien|de mer- veil-|les|vous par-|
 D4 ^C4 | ^C4 E4- | E2 D2 z4 | D2 D2 C4 | F8 | E4 D4 | E4 A2 A2 | G4 E4 | G4 F4 | E4 F2 F2 | %53
w: fai- tes|de- dans|_ moy,|vous par- fai-|tes|de- dans|moy, vou par-|fai- tes|de- dans|moy, vous par-|
 E4 D4 |"^#" D4 C4 | D4 z4 | E2 F2 G4 | A8 | z4 F2 F2 | G4 A4 | D2 E2 F4- | F2 F2 E2 E2 | D4 C4 | %63
w: fai- tes|de dans|moy,|par voz beau-|tez,|par voz|beau- tez|non pa- reil-|* les, par voz|beau- tez|
 z4 B,2 C2 | D6 D2 | ^C2 D2 C4 | D8 |] %67
w: non pa-|reil- les,|non pa- reil-|les.|
V:3
 d8 | ^c2 d4 A2 | _B8 | G8 | F8 | z4 F2 F2 | G4 A4 | D2 d2 ^c4 | d4 G2 G2 | A4 F4 | C2 D2 C4 | %11
w: Que|sans l'ai- de|des|cha-|leurs|dont mon|a- m'est|em- bra- sé-|e, dont mon|a- m'est|em- bra- sé-|
 F8- | F8- | F8 | z8 | z8 | A8- | A8- | A8 | G8 |"^-natural" A8- | A4 E4 | c8 | B8 | A4 z2 A2 | %25
w: e,|_||||long|_||tems|a|_ que|par|mes|pleurs, en|
 c4 z2 G2 | _B4 z2 F2 |"^-natural" FGAB c4 | F4 c2 d2- | d2 A2 _B4 | A4 z4 | z8 | z8 | F4 F2 F2 | %34
w: eau, en|eau, en|eau _ _ _ _|ce fut es-|* pui- sé-|e,|||voy- ez com-|
 c4 A2 _B2 | G4 F4 | A4 D2 A2- | A2 ^G2 A3 B | c4 F4 | F2 F2 c4 | A2 _B2 G4 | F8 | z8 | z4 A2 A2 | %44
w: bien de mer-|veil- les,|voy- ez donc|_ mon cher e-|moy, voy-|ez com- bien|de mer- veil-|les||vous par-|
 A6 G2 | F4 E4 | D4 A2 A2 | d6 A2 | c4 B4 | A4 z4 | z4 A2 A2 | G4 D4 | A6 B2 | c4 d4 | A8 | z8 | %56
w: fai- tes|de- dans|moy, vous par-|fai- tes|de dans|moy,|vous par-|fai- tes,-|de- *|* dans|moy,||
 z8 | d2 e2 f4 | e4 d2 d2 | e4 A4 | z8 | F2 G2 A4 | D4 F2 F2 | E4 G4 | z4 D2 D2 | A8 | D8 |] %67
w: |par voz beau-|tez- non pa-|reil- les,||par voz beau-|tez non pa-|reil- les,|non pa-|reil-|les.|

